X:547
T: UNTER MEINES VATERS SEINEM FENSTER
N: E0523
O: Europa, Mitteleuropa, Deutschland, Thueringen; Schlesien
R: Liebes - Lied
M: 3/4
L: 1/8
K: F
FA | cAcAcA | cfA2
dc | cBBGEG | G2F2
AA | cBB2GG | dcc2
AA | cBB2GG | dcc2
AB | cAcAcA | cfA2
dc | cBBGEG | G2F2

